X:2522
T:Polska från Södermanland
T:Svenska Folkdansar H3 nr 34
O:Södermanland
B:Traditioner av Svenska Folkdansar Häfte 3, nr 34
R:Polska
Z:Nils L
U:w=wedge
N:Se även [[Musik/DammetLättar|+]]
M:3/4
L:1/16
K:D
(a2>g2) wf2wd2 wf2wa2 | bagf (f4 e4) | (f2>e2) wd2wA2 wd2wf2 | e2ed (d4 c4)  |
A2dA GFED [BD]4 | ABcd (A2G2) (G2F2) | A2dA GFED [BD]4 | (ABcd) (A2G2) (G2F2) |
ABcd efge gfed | cdec d4 D4 :: A2AB =c2c2 dcBA | B2dB G2DB, G,4 | 
B2B^c d2d2 edcB | c2ec A2EC A,4 :|
(:musicend:)
(:music:)
